!!!COM: Palestrina, Giovanni Perluigi da
!!!OPR: De Beata Marie Virginis (II)
!!!OTL: Agnus
**kern	**kern	**kern	**kern	**kern
*Ibass	*Itenor	*Itenor	*Icalto	*Icant
!Bassus	!Tenor 2	!Tenor 1	!Altus	!Cantus
*clefF4	*clefGv2	*clefGv2	*clefG2	*clefG2
*k[]	*k[]	*k[]	*k[]	*k[]
*G:mix	*G:mix	*G:mix	*G:mix	*G:mix
*M4/2	*M4/2	*M4/2	*M4/2	*M4/2
=1	=1	=1	=1	=1
0r	0r	0r	1r	1g
.	.	.	1d	[1dd
=2	=2	=2	=2	=2
0r	0r	0r	1g	2dd]
.	.	.	.	2b
.	.	.	2e	1cc
.	.	.	2f	.
=3	=3	=3	=3	=3
0r	1r	0r	2g	2b
.	.	.	2e	2cc
.	1G	.	2d	2dd
.	.	.	[2g	2b
=4	=4	=4	=4	=4
0r	1.d	0r	2g]	1a
.	.	.	4f#	.
.	.	.	4e	.
.	.	.	2f#	1dd
.	2B	.	[2g	.
=5	=5	=5	=5	=5
0r	1c	0r	4g]	2ee
.	.	.	4f	.
.	.	.	2e	2.gg
.	2B	.	2d	.
.	.	.	.	4ff
.	2c	.	2g	[2ee
=6	=6	=6	=6	=6
0r	2d	0r	2f	4ee]
.	.	.	.	4dd
.	2B	.	2d	1dd
.	1A	.	2e	.
.	.	.	[2a	2cc
=7	=7	=7	=7	=7
1r	1d	1G	4a]	1b
.	.	.	4g	.
.	.	.	1g	.
1D	1r	[1d	.	1a
.	.	.	2f#	.
=8	=8	=8	=8	=8
1G	1d	2d]	1.g	1b
.	.	2B	.	.
2E	2g	1c	.	1r
2F	[2a	.	4f	.
.	.	.	4e	.
=9	=9	=9	=9	=9
2G	4a]	2B	2d	1g
.	4g	.	.	.
2E	2g	2c	2G	.
2D	2f	2d	1r	1dd
[2d	2d	2B	.	.
=10	=10	=10	=10	=10
2d]	2a	2A	0r	1ee
2c	2A	2.a	.	.
2B	2d	.	.	2dd
.	.	4g	.	.
2c	[2e	[2g	.	2g
=11	=11	=11	=11	=11
1A	2e]	2g]	1c	2a
.	2c	2f	.	1cc
1G	2r	2e	[1g	.
.	2d	2d	.	2b
=12	=12	=12	=12	=12
0r	4e	1c	2g]	1.cc
.	4f	.	.	.
.	4g	.	2e	.
.	4e	.	.	.
.	2a	1r	1f	.
.	2f	.	.	2a
=13	=13	=13	=13	=13
0r	2g	0r	2e	1cc
.	2.a	.	2f	.
.	.	.	2g	2b
.	4g	.	.	.
.	[2g	.	2e	4a
.	.	.	.	4g
=14	=14	=14	=14	=14
0r	2g]	2r	1d	1a
.	2f#	2d	.	.
.	2g	1e	2r	[1g
.	2e	.	[2c	.
=15	=15	=15	=15	=15
1G	1d	2g	2c]	1g]
.	.	1g	2B	.
1A	1c	.	2A	1r
.	.	[2f	2a	.
=16	=16	=16	=16	=16
2c	0r	2f]	1.g	0r
2c	.	2e	.	.
2B-	.	2d	.	.
2G	.	[2e	2g	.
=17	=17	=17	=17	=17
1B-	2r	4e]	2f	1r
.	.	4d	.	.
.	2d	1d	2g	.
1A	1e	.	1a	2r
.	.	2c#	.	2a
=18	=18	=18	=18	=18
2G	2g	2d	1r	1b
2G	2g	2B	.	.
4D	2f	[1A	2r	2dd
4E	.	.	.	.
4F	2d	.	2a	2dd
4G	.	.	.	.
=19	=19	=19	=19	=19
4A	2f	1A]	1a	2cc
4B	.	.	.	.
1c	1e	.	.	2a
.	.	1r	2g	2cc
2G	[2d	.	2g	[2b
=20	=20	=20	=20	=20
1A	2d]	0r	2f	4b]
.	.	.	.	4a
.	2c	.	1e	1a
1B-	1d	.	.	.
.	.	.	[2d	2g
=21	=21	=21	=21	=21
1A	1e	2r	2d]	0a
.	.	2e	2c#	.
2D	1d	1f#	1d	.
2d	.	.	.	.
=22	=22	=22	=22	=22
2B	2G	1g	2r	1r
2e	1g	.	2g	.
1d	.	1r	1a	2r
.	2f#	.	.	2dd
=23	=23	=23	=23	=23
1c	0g	2r	2cc	1ee
.	.	2c	2cc	.
1G	.	2d	2b-	2gg
.	.	2e	2g	2gg
=24	=24	=24	=24	=24
0r	0r	2.d	2b-	2ff
.	.	.	1a	2dd
.	.	8c	.	.
.	.	8B	.	.
.	.	4A	.	2ff
.	.	4B	.	.
.	.	[2c	4g	[2ee
.	.	.	4f	.
=25	=25	=25	=25	=25
0r	2r	4c]	1g	4ee]
.	.	4G	.	4dd
.	2d	2B-	.	1dd
.	1e	1A	1a	.
.	.	.	.	2cc#
=26	=26	=26	=26	=26
1G	2g	0r	1b-	1dd
.	1g	.	.	.
1A	.	.	1a	[1cc
.	[2f	.	.	.
=27	=27	=27	=27	=27
1.c	2f]	2r	0g	0cc]
.	2.e	2c	.	.
.	.	1e	.	.
.	4d	.	.	.
2c	4e	.	.	.
.	4c	.	.	.
=28	=28	=28	=28	=28
2B-	2d	2g	0r	0r
2G	2.e	2g	.	.
1B-	.	2f	.	.
.	4d	.	.	.
.	[2d	2d	.	.
=29	=29	=29	=29	=29
1A	2d]	2f	0r	0r
.	2c	2.e	.	.
2G	2B-	.	.	.
.	.	4d	.	.
2F	2A	[2d	.	.
=30	=30	=30	=30	=30
1E	1G	2d]	2r	1r
.	.	2c#	1g	.
1D	[1A	1d	.	2r
.	.	.	2f	[2dd
=31	=31	=31	=31	=31
0r	1A]	1r	0e	2dd]
.	.	.	.	2cc
.	1r	2r	.	2b
.	.	[2g	.	2g
=32	=32	=32	=32	=32
0r	0r	2g]	1d	1a
.	.	2f	.	.
.	.	2e	2g	2b
.	.	2c	[2a	[2cc
=33	=33	=33	=33	=33
0r	1r	1e	4a]	4cc]
.	.	.	4g	4b
.	.	.	1g	2g
.	2r	2.d	.	1a
.	[2d	.	2f#	.
.	.	4c	.	.
=34	=34	=34	=34	=34
1r	2d]	2B	1g	0g
.	2c	2e	.	.
[1G	1B	2.d	2r	.
.	.	.	[2d	.
.	.	4c	.	.
=35	=35	=35	=35	=35
2G]	2G	2B	2d]	1r
2F	2A	2A	2d	.
2E	2B	1G	1e	2r
2C	2c	.	.	[2gg
=36	=36	=36	=36	=36
1D	1A	2r	1d	2gg]
.	.	2d	.	2ff
2E	2G	1c	2r	2ee
[2F	4A	.	[2a	2cc
.	4G	.	.	.
=37	=37	=37	=37	=37
2F]	4A	2F	2a]	2dd
.	4B	.	.	.
2E	1c	2G	2g	2ee
1D	.	2A	2f	1ff
.	2B	2F	2d	.
=38	=38	=38	=38	=38
4C	1c	1G	2e	1ee
4D	.	.	.	.
4E	.	.	1cc	.
4F	.	.	.	.
1G	1r	2r	.	1dd
.	.	[2g	2b	.
=39	=39	=39	=39	=39
1D	0r	2g]	1.a	1dd
.	.	2f	.	.
1A	.	2e	.	1cc
.	.	2c	2e	.
=40	=40	=40	=40	=40
1r	2r	2d	2f#	2a
.	1g	2e	2g	2cc
2r	.	1d	[1a	1dd
[2d	[2f	.	.	.
=41	=41	=41	=41	=41
2d]	2f]	1A	1a]	1ee
2c	2.e	.	.	.
2B	.	1r	2.g	1r
.	4d	.	.	.
2G	[2d	.	.	.
.	.	.	4f	.
=42	=42	=42	=42	=42
2.A	2d]	1r	1e	2r
.	2c#	.	.	1a
4G	.	.	.	.
2F	1d	2r	1d	.
2G	.	[2d	.	2g
=43	=43	=43	=43	=43
1A	1a	2d]	1r	2f
.	.	2c	.	2e
1G	1d	2B	2r	4g
.	.	.	.	4a
.	.	2G	[2g	4b
.	.	.	.	4cc
=44	=44	=44	=44	=44
1D	2r	2A	2g]	1dd
.	2d	2B	2f	.
1C	1G	2.c	1e	1ee
.	.	4B	.	.
=45	=45	=45	=45	=45
0D	2d	2A	2f#	0dd
.	2d	2G	1g	.
.	1d	1A	.	.
.	.	.	2f#	.
=46	=46	=46	=46	=46
[0G	[0d	[0G	[0g	[0b
=47	=47	=47	=47	=47
0G]	0d]	0G]	0g]	0b]
==	==	==	==	==
*-	*-	*-	*-	*-
!!!CDT: 1525/^1526/-1594/2/2
!!!OCY: Italia
!!!AGN: Mass (Paraphrase)
!!!AST: renaissance, vocal
!!!ASW: Gregorian Mass
!!!PWK: Masses, Book Mantuan I
!!!RNB: Cadence finals: D
!!!YOR: Le Opere Complete, v. 18, p. 126
!!!YOO: Rome, Italy: Fratelli Scalera
!!!END: 1992//
!!!EED: John Miller
!!!YEC: Copyright 2000, John Miller
!!!YEN: United States of America
!!!YEM: Rights to all derivative electronic formats reserved.
!!!YEM: Refer to licensing agreement for further details.
!!!YEM: This file must be accompanied by the licensing agreement.
!!!YEM: A copy of the licensing agreement may be found at http://www.music-cog.ohio-state.edu/HumdrumDatabases/Palestrina/license.txt
!!!EMD: converted to Humdrum by Bret Aarden
